RestoDelMundo/Italia/Otras Categorias/Asd Giorgione Calcio.svg

<svg xmlns="http://www.w3.org/2000/svg" viewBox="0 0 612 792"><path fill="#ed1c24" d="M534.259 251.836h-152.52l-75.72-134.089-75.72 134.089H77.778l73.212 128.866-73.212 128.867h44.401l-37.492 54.218h24.422V680.06h153.903l40.704-33.024c9.677-7.526 17.202-16.894 22.732-27.8a79.2 79.2 0 0 0 7.761-25.5l13.281-23.518V680.06h62.053V563.787h17.972V680.06h62.051V509.569h44.693l-73.211-128.866zM200.807 645.347l-29.644 34.008V509.569h45.853c-7.696 3.871-14.843 9.078-21.431 15.667-15.975 15.82-23.962 35.173-23.962 57.751 0 25.344 9.677 46.078 29.184 62.36m63.436-49.918c-3.073 2.917-6.76 4.454-10.905 4.454-4.303 0-7.987-1.536-10.907-4.454q-4.606-4.609-4.607-11.06c0-4.146 1.538-7.832 4.607-10.75 2.92-2.919 6.604-4.455 10.907-4.455 4.145 0 7.832 1.536 10.905 4.455 2.917 2.918 4.455 6.604 4.455 10.75-.001 4.301-1.538 7.987-4.455 11.06m145.3-40.971v-44.89h31.039z"/><path fill="#fff" d="M188.365 312.2h78.642l39.012-69.272L345.03 312.2h78.642l-39.013 68.503 39.013 68.503H345.03l-39.011 69.271-39.012-69.271h-78.642l39.013-68.503Z"/></svg>

<svg enable-background="new 0 0 612 792" viewBox="0 0 612 792" xmlns="http://www.w3.org/2000/svg"><path d="M 534.259 251.836 h -152.52 l -75.72 -134.089 l -75.72 134.089 H 77.778 l 73.212 128.866 L 77.778 509.569 h 44.401 l -37.492 54.218 h 24.422 V 680.06 h 61.438 h .615 h 91.85 l 40.704 -33.024 c 9.677 -7.526 17.202 -16.894 22.732 -27.8 c 4.062 -8.125 6.626 -16.645 7.761 -25.5 l 13.281 -23.518 V 680.06 h 62.053 V 563.787 h 17.972 V 680.06 h 62.051 V 509.569 h 44.693 l -73.211 -128.866 L 534.259 251.836 z M 200.807 645.347 l -29.644 34.008 V 509.569 h 45.853 c -7.696 3.871 -14.843 9.078 -21.431 15.667 c -15.975 15.82 -23.962 35.173 -23.962 57.751 C 171.623 608.331 181.3 629.065 200.807 645.347 z M 264.243 595.429 c -3.073 2.917 -6.76 4.454 -10.905 4.454 c -4.303 0 -7.987 -1.536 -10.907 -4.454 c -3.07 -3.073 -4.607 -6.759 -4.607 -11.06 c 0 -4.146 1.538 -7.832 4.607 -10.75 c 2.92 -2.919 6.604 -4.455 10.907 -4.455 c 4.145 0 7.832 1.536 10.905 4.455 c 2.917 2.918 4.455 6.604 4.455 10.75 C 268.697 588.67 267.16 592.356 264.243 595.429 z M 409.543 554.458 v -44.89 h 31.039 L 409.543 554.458 z" fill="#ed1c24"/><path d="M 188.365 312.2 L 267.007 312.2 L 306.019 242.928 L 345.03 312.2 L 423.672 312.2 L 384.659 380.703 L 423.672 449.206 L 345.03 449.206 L 306.019 518.477 L 267.007 449.206 L 188.365 449.206 L 227.378 380.703 Z" fill="#fff"/></svg>
